svgs/sharp-solid/objects-align-top.svg

<svg xmlns="http://www.w3.org/2000/svg" viewBox="0 0 512 512"><!--! Font Awesome Pro 6.6.0 by @fontawesome - https://fontawesome.com License - https://fontawesome.com/license (Commercial License) Copyright 2024 Fonticons, Inc. --><path d="M512 0l0 48L0 48 0 0 512 0zM64 128l160 0 0 384L64 512l0-384zm224 0l160 0 0 256-160 0 0-256z"/></svg>

<svg xmlns="http://www.w3.org/2000/svg" viewBox="0 0 512 512"><!--! Font Awesome Pro 6.4.2 by @fontawesome - https://fontawesome.com License - https://fontawesome.com/license (Commercial License) Copyright 2023 Fonticons, Inc. --><path d="M512 0V48H0V0H512zM64 128H224V512H64V128zm224 0H448V384H288V128z"/></svg>
